X:40
T:Lilting Banshee, The
T:Miller of Glenmire, The
R:jig
S:Mary Bergin
N:Bars 1 and 5 also played |EAA EAc|
Z:id:hn-jig-186
M:6/8
K:Ador
EAA EAA|BAB G2A|Bee edB|def gfg|eAA eAA|BAB G2A|Bee edB|1 dBA A3:|2 dBA A3||
eaa age|dBA G2A|Bee edB|def ~g3|eaa age|dBA G2A|Bee edB|1 dBA ABd:|2 dBA A2G||
